frontend/public/svg/objects/sofa.svg

<svg width="158" height="144" viewBox="0 0 158 144" fill="none" xmlns="http://www.w3.org/2000/svg">
<g clip-path="url(#clip0)">
<path d="M138.714 53.6426C138.995 53.7946 139.292 53.9122 139.601 53.9925C148.733 54.3555 153.111 60.3839 155.55 68.0644C157.71 74.8667 157.662 81.9866 156.893 89.0836C156.398 93.6498 156.134 98.2408 155.68 102.812C155.328 106.735 154.089 110.526 152.055 113.898C150.093 117.114 147.366 119.412 143.57 119.944C138.134 120.706 132.667 121.245 127.211 121.855C126.219 121.966 125.215 121.964 123.798 122.034C124.4 124.798 124.943 127.361 125.519 129.918C125.986 131.995 126.542 134.053 126.958 136.14C127.185 137.118 127.245 138.126 127.134 139.124C127.035 140.143 126.586 141.096 125.864 141.822C125.142 142.547 124.191 143 123.173 143.105C122.153 143.225 121.124 142.97 120.279 142.386C119.433 141.803 118.829 140.932 118.579 139.937C117.973 137.321 117.511 134.675 117.195 132.009C116.712 128.936 116.269 125.856 115.827 122.901H41.5828C40.9435 126.648 40.3423 130.376 39.6577 134.09C39.3563 135.969 38.9214 137.824 38.3563 139.641C37.3586 142.599 35.2275 144.02 32.887 143.556C30.4907 143.081 28.9213 140.609 29.5311 137.452C30.2937 133.501 31.4588 129.628 32.442 125.718C32.6829 124.758 32.8928 123.791 33.223 122.371C29.7319 121.981 26.4384 121.71 23.181 121.221C20.076 120.799 16.9969 120.203 13.9581 119.438C8.19746 117.903 4.57257 114.142 3.8506 108.165C2.93697 100.603 2.32131 93.0039 1.64988 85.4134C1.34402 81.9551 1.02708 78.4792 1.05924 75.0144C1.00117 71.9978 1.31148 68.9852 1.98334 66.0435C4.31268 57.1704 11.9406 51.8799 21.1057 52.4148C21.9721 52.4653 22.8371 52.546 23.8019 52.6228C22.7596 41.6725 23.3201 30.942 24.2285 20.2155C24.9649 11.517 29.0573 6.44745 37.404 3.95205C43.9247 2.00207 50.6711 1.5065 57.3887 1.45793C77.1501 1.32076 96.9124 1.44159 116.675 1.52363C119.034 1.48689 121.389 1.71127 123.698 2.19295C130.848 3.84889 135.315 8.39475 136.672 15.5961C137.657 20.5428 138.301 25.5509 138.602 30.5855C138.934 37.3031 138.703 44.0489 138.714 50.783C138.716 51.7734 138.714 52.7644 138.714 53.6426ZM123.201 66.7655C123.828 65.4661 124.525 64.2015 125.287 62.9771C126.542 61.1341 128.595 59.5827 129.154 57.5841C129.75 55.4569 128.887 52.9555 128.859 50.615C128.775 43.436 128.944 36.251 128.699 29.0792C128.465 24.8277 128 20.5919 127.305 16.3909C126.78 12.7614 124.451 10.6342 120.921 9.92205C119.274 9.59369 117.597 9.43577 115.917 9.4508C107.052 9.51972 98.187 9.61489 89.3238 9.80063C77.8819 10.0415 66.4337 10.2088 55.0043 10.7516C50.11 10.9839 45.2248 11.9272 40.3935 12.8355C36.3203 13.6002 34.2016 16.253 33.519 20.4529C31.6261 32.1069 30.8562 43.8442 30.4755 55.6189C30.477 56.4871 30.7614 57.3312 31.2855 58.0231C34.3571 61.7697 36.4299 66.2331 37.3107 70.9969C37.3593 71.2509 37.4873 71.4826 37.6762 71.6585C42.0271 70.8204 46.0486 69.6284 50.1343 69.3338C64.3427 68.3099 78.5658 67.3825 92.7965 66.8397C102.752 66.4591 112.73 66.7655 123.201 66.7655ZM84.9868 113.26V112.989C98.0092 112.989 111.033 113.104 124.053 112.933C129.2 112.867 134.342 112.211 139.477 111.738C140.837 111.654 142.136 111.151 143.197 110.298C144.259 109.446 145.031 108.285 145.407 106.977C145.885 105.384 146.15 103.734 146.194 102.072C146.397 98.4909 146.194 94.8712 146.619 91.3217C147.472 84.9776 147.592 78.556 146.975 72.1842C146.631 69.3935 145.529 66.7517 143.788 64.5433C142.512 62.8256 140.835 62.2709 138.789 62.4291C135.07 62.7166 131.827 65.5939 130.76 69.9678C129.775 73.9924 129.004 78.0722 128.253 82.1488C127.509 86.1813 125.245 89.037 121.856 91.1937C119.198 92.8943 116.152 93.8926 113.003 94.0967C105.95 94.5982 98.8998 95.33 91.8389 95.4527C78.1471 95.691 64.445 95.752 50.7519 95.5046C46.2126 95.4232 41.6767 94.2674 37.1722 93.4246C32.8154 92.6088 30.796 89.4866 30.2046 85.3976C29.7891 82.5229 29.703 79.5976 29.5271 76.6913C29.2389 71.9348 28.5741 67.3135 25.4972 63.396C22.8568 60.0349 19.5194 59.0877 15.6634 60.8585C12.914 62.1219 10.6522 64.0284 10.0655 67.1534C9.40434 70.0945 9.0507 73.0972 9.01014 76.1118C9.14732 81.8219 9.68151 87.5281 10.1547 93.2277C10.4796 97.1375 11.0355 101.028 11.3854 104.937C11.6735 108.154 13.2946 110.1 16.4516 110.77C17.0991 110.948 17.7566 111.087 18.4206 111.186C26.3512 111.891 34.2745 112.988 42.2181 113.169C56.4666 113.492 70.7298 113.26 84.9868 113.26ZM120.964 75.544C119.296 75.2401 117.613 75.0236 115.922 74.8949C93.5795 74.6245 71.266 75.3104 48.9811 76.9525C46.1293 77.1599 43.2874 78.088 40.5419 78.9872C38.569 79.6343 38.7042 81.4813 38.8256 83.2534C38.947 85.0255 40.0325 85.5348 41.4633 85.7015C45.1335 86.1288 48.8011 86.711 52.4851 86.8619C73.0283 87.7033 93.5303 86.117 114.049 85.5158C116.511 85.4436 118.513 84.3718 119.419 82.1284C120.189 80.225 120.394 78.0906 120.964 75.544Z" fill="black"/>
</g>
<defs>
<clipPath id="clip0">
<rect width="156.865" height="143.082" fill="white" transform="translate(0.809204 0.830078)"/>
</clipPath>
</defs>
</svg>

<svg xmlns="http://www.w3.org/2000/svg" width="158" height="144" fill="none" viewBox="0 0 158 144"><g clip-path="url(#a)"><path fill="#000" d="M138.714 53.643q.423.229.887.35c9.132.362 13.51 6.39 15.949 14.071 2.16 6.803 2.112 13.923 1.343 21.02-.495 4.566-.759 9.157-1.213 13.728a25.95 25.95 0 0 1-3.625 11.086c-1.962 3.216-4.689 5.514-8.485 6.046-5.436.762-10.903 1.301-16.359 1.911-.992.111-1.996.109-3.413.179.602 2.764 1.145 5.327 1.721 7.884.467 2.077 1.023 4.135 1.439 6.222a8.9 8.9 0 0 1 .176 2.984 4.434 4.434 0 0 1-3.961 3.981 4.225 4.225 0 0 1-4.594-3.168 73 73 0 0 1-1.384-7.928c-.483-3.073-.926-6.153-1.368-9.108H41.583c-.64 3.747-1.24 7.475-1.925 11.189a40 40 0 0 1-1.302 5.551c-.997 2.958-3.129 4.379-5.469 3.915-2.396-.475-3.966-2.947-3.356-6.104.763-3.951 1.928-7.824 2.911-11.734.24-.96.45-1.927.781-3.347-3.491-.39-6.785-.661-10.042-1.15a84 84 0 0 1-9.223-1.783c-5.76-1.535-9.385-5.296-10.107-11.273-.914-7.562-1.53-15.161-2.201-22.752-.306-3.458-.623-6.934-.59-10.399a37 37 0 0 1 .923-8.97c2.33-8.874 9.958-14.164 19.123-13.63.866.051 1.731.132 2.696.209-1.042-10.95-.482-21.681.427-32.407.736-8.699 4.828-13.769 13.175-16.264 6.52-1.95 13.267-2.445 19.985-2.494 19.761-.137 39.523-.016 59.286.066a32 32 0 0 1 7.023.669c7.15 1.656 11.617 6.202 12.974 13.403a110.5 110.5 0 0 1 1.93 14.99c.332 6.717.101 13.463.112 20.197.002.99 0 1.981 0 2.86m-15.513 13.123a40 40 0 0 1 2.086-3.789c1.255-1.843 3.308-3.394 3.867-5.393.596-2.127-.267-4.629-.295-6.969-.084-7.179.085-14.364-.16-21.536a117 117 0 0 0-1.394-12.688c-.525-3.63-2.854-5.757-6.384-6.469a24.5 24.5 0 0 0-5.004-.471c-8.865.069-17.73.164-26.593.35-11.442.24-22.89.408-34.32.95-4.894.233-9.78 1.176-14.61 2.085-4.074.764-6.192 3.417-6.875 7.617-1.893 11.654-2.663 23.391-3.043 35.166.001.868.285 1.712.81 2.404a28.7 28.7 0 0 1 6.025 12.974c.048.254.176.486.365.662 4.351-.839 8.373-2.03 12.458-2.325 14.209-1.024 28.432-1.952 42.662-2.494 9.956-.38 19.934-.075 30.405-.075M84.987 113.26v-.271c13.022 0 26.046.115 39.066-.056 5.147-.066 10.289-.722 15.424-1.195a6.59 6.59 0 0 0 5.93-4.761c.478-1.593.743-3.243.787-4.905.203-3.581 0-7.2.425-10.75a83.3 83.3 0 0 0 .356-19.138 15.4 15.4 0 0 0-3.187-7.64c-1.276-1.718-2.953-2.273-4.999-2.115-3.719.288-6.962 3.165-8.029 7.539-.985 4.024-1.756 8.104-2.507 12.18-.744 4.033-3.008 6.889-6.397 9.046a18.7 18.7 0 0 1-8.853 2.903c-7.053.501-14.103 1.233-21.164 1.356-13.692.238-27.394.299-41.087.052-4.54-.082-9.075-1.238-13.58-2.08-4.357-.816-6.376-3.938-6.967-8.027-.416-2.875-.502-5.8-.678-8.707-.288-4.756-.953-9.377-4.03-13.295-2.64-3.361-5.978-4.308-9.834-2.538-2.749 1.264-5.01 3.17-5.597 6.295a43.5 43.5 0 0 0-1.056 8.959c.137 5.71.672 11.416 1.145 17.116.325 3.91.88 7.8 1.23 11.709.289 3.217 1.91 5.163 5.067 5.833q.972.267 1.969.416c7.93.705 15.854 1.802 23.797 1.983 14.249.323 28.512.091 42.769.091m35.977-37.716a49 49 0 0 0-5.042-.65 782 782 0 0 0-66.94 2.058c-2.853.208-5.695 1.136-8.44 2.035-1.973.647-1.838 2.494-1.716 4.266.121 1.772 1.206 2.282 2.637 2.448 3.67.428 7.338 1.01 11.022 1.16 20.543.842 41.045-.744 61.564-1.345 2.462-.072 4.464-1.144 5.37-3.388.77-1.903.975-4.037 1.545-6.584"/></g><defs><clipPath id="a"><path fill="#fff" d="M.81.83h156.864v143.082H.81z"/></clipPath></defs></svg>
